X:27
T:Rosie Finn's
Z: id:dc-slide-28
M:6/8
L:1/8
K:G Major
G2B d2g|b2g d2B|cBc agf|gfe dBA|!
G2B d2g|b2g d2B|cBc agf|g3 g3:|!
g2b c'2b|a2e efg|f2a abg|f2d def|!
g2b c'2b|a2e efg|faf def|g3 g3:|!

